.local/share/icons/Gruvbox-Plus-Dark/panel/16/keybase-uploading.svg

<svg xmlns="http://www.w3.org/2000/svg" width="16" height="16" version="1.1">
 <defs>
  <style id="current-color-scheme" type="text/css">
   .ColorScheme-Text { color:#ebdbb2; } .ColorScheme-Highlight { color:#458588; }
  </style>
 </defs>
 <path style="fill:currentColor" class="ColorScheme-Text" d="M 7,1 C 6.96924,1 6.659927,1.6290934 6.46875,2.0078125 6.1888835,2.562226 6.0555541,2.9898894 6.0097656,3.4824219 c -0.011312,0.12171 -0.00954,0.241871 -0.00195,0.359375 C 6.0030794,3.8947319 6.00049,3.946858 6,4 6,4.4587653 6.1601643,4.8774025 6.4199219,5.2148438 4.9615166,5.6130806 3.7224106,6.545039 2.9316406,7.7910156 2.7764446,7.9939532 2.6404076,8.204923 2.5410156,8.4316406 2.3848326,8.7879022 2.2676025,9.1563479 2.1796875,9.5546875 c -0.0585,0.2363652 -0.1071748,0.4761705 -0.1367187,0.7226565 -0.0026,0.02194 0.00489,0.02655 0.015625,0.02344 -0.01128,0.09494 -0.026376,0.185721 -0.035156,0.285157 -0.02812,0.318756 -0.031172,0.449217 -0.00977,0.449218 L 6,7 5.0390625,10.011719 c 0.0052,0.0052 -0.1058848,0.04768 0.027344,-0.013672 C 5.8849509,9.6211566 6.6352694,9.1115363 7.5371094,9.0039062 7.8481182,8.9667905 8.9257704,8.966026 9.25,9 9.57761,9.0343275 9.8914164,9.219586 10.214844,9.421875 10.769183,9.1448664 11.380302,9.0004443 12,9 c 0.408814,-9.61e-5 0.815227,0.06248 1.205078,0.1855469 0.08832,-0.2465709 0.129389,-0.5146847 0.09766,-0.7597657 -0.0068,-0.052432 -0.02062,-0.1014581 -0.03125,-0.1523437 0.02116,-0.052393 0.0015,-0.141107 -0.08203,-0.2871094 C 13.107258,7.7679272 12.985456,7.5499904 12.802734,7.3027344 11.917775,6.3302765 10.8369,5.5643702 9.5800781,5.2128906 9.8392798,4.8756471 10,4.4582227 10,4 9.999983,3.949163 9.99805,3.8983453 9.99414,3.8476562 9.99584,3.7969862 10.00063,3.745172 9.99805,3.6953125 9.9627528,3.010501 9.566885,2.5413464 8.96875,2.2324219 8.6520787,2.0688674 8.167645,1.9928182 7.8515625,1.9921875 7.3695269,1.9261045 7.2900031,1.2786987 7,1 Z M 4.5527344,9.8867188 c 0,-3e-7 -0.4140169,0.3631912 -1.828125,1.8515622 -0.167851,0.169733 -0.3928843,0.261141 -0.6289063,0.28125 C 2.2871422,13.128541 2.7866278,14.161353 3.5371094,15 l 5.0039062,0 C 8.1881535,14.392419 8.0015552,13.702612 8,13 8.001626,11.885529 8.4681309,10.822265 9.2871094,10.066406 9.2577293,10.05454 9.1523473,9.9947561 9.1464844,9.9941406 9.0522454,9.9842606 7.698979,9.9909936 7.65625,9.9960938 7.0599863,10.067255 6.4051922,10.482424 5.4902344,10.904297 c -0.0024,0.0012 -0.00346,7.59e-4 -0.00586,0.002 -0.00328,0.0016 -0.012435,0.0082 -0.015625,0.0098 -0.050698,0.02504 -0.057682,0.03073 -0.1386719,0.05859 -0.020247,0.007 -0.1164672,0.03305 -0.1171875,0.0332 -3.601e-4,8.6e-5 -0.2595855,0.02149 -0.2597656,0.02149 L 4.625,10.957031 4.5390625,10.917969 5,10.03125 c 0,0 -0.2241481,-0.072871 -0.4472656,-0.1445312 z M 12,10 c -1.656751,0 -3,1.35 -3,3 0,1.65 1.343249,3 3,3 1.65675,0 3,-1.35 3,-3 0,-1.65 -1.34325,-3 -3,-3 z m 0.0039,0.5 2.4961,2.5 -1.5,0 0,2 -2,0 0,-2 -1.5,0 z M 5,12 c 0.5522847,0 1,0.447715 1,1 0,0.552285 -0.4477153,1 -1,1 -0.5522847,0 -1,-0.447715 -1,-1 0,-0.552285 0.4477153,-1 1,-1 z"/>
</svg>

<svg width="16" height="16" version="1.1" xmlns="http://www.w3.org/2000/svg">
  <defs>
    <style id="current-color-scheme" type="text/css">.ColorScheme-Text { color:#ebdbb2; } .ColorScheme-Highlight { color:#458588; } .ColorScheme-NeutralText { color:#fe8019; } .ColorScheme-PositiveText { color:#689d6a; } .ColorScheme-NegativeText { color:#fb4934; }</style>
  </defs>
  <path class="ColorScheme-Text" d="m7.034 1.001c-0.2637 0.4179-0.5294 1.006-0.5312 1.006-0.2532 0.5015-0.9227 2.071-0.04883 3.207-4.452 1.196-4.583 5.82-4.406 5.82l3.986-4.035-0.9609 3.012c0.0578 0.0578 1.365-0.8724 2.498-1.008 0.6535-0.05369 1.031-0.1212 1.713-0.00391 0.3257 0.05847 0.6249 0.2298 0.9277 0.4141 0.557-0.2825 1.172-0.431 1.797-0.4336 0.424 6.366e-4 0.8453 0.06854 1.248 0.2012 0.1709-0.452 0.1623-1.089-0.4199-1.877-0.885-0.9725-1.966-1.738-3.223-2.09 0.475-0.618 0.8904-2.206-0.6113-2.982-0.3167-0.1636-0.8013-0.2396-1.117-0.2402-0.482-0.06608-0.5616-0.7115-0.8516-0.9902zm-2.447 8.883-1.828 1.854c-0.1679 0.1697-0.3929 0.2612-0.6289 0.2812 0.1914 1.109 0.6913 2.141 1.441 2.979h4.977c-0.3565-0.6093-0.5458-1.302-0.5488-2.008 0.0028-1.124 0.4776-2.196 1.309-2.953-0.04489-0.02018-0.08878-0.03656-0.127-0.04492-0.4232-0.0909-1.089-0.04602-1.49 0.00195-0.9391 0.1121-2.012 1.033-2.703 1.033-0.1456-0.0086-0.278-0.07471-0.4141-0.1113l0.4609-0.8867zm0.4473 2.115c0.5523 0 1 0.4477 1 1s-0.4477 1-1 1c-0.5523 0-1-0.4477-1-1s0.4477-1 1-1zm6.966-1.999c-1.657 0-3 1.35-3 3s1.343 3 3 3 3-1.35 3-3-1.343-3-3-3zm0.0039 0.5 2.496 2.5h-1.5v2h-2v-2h-1.5z" fill="currentColor"/>
</svg>
